public/assets/img/careers/be3.svg

<svg id="egTw8KVeD9P1" xmlns="http://www.w3.org/2000/svg" xmlns:xlink="http://www.w3.org/1999/xlink" viewBox="0 0 43 42" shape-rendering="geometricPrecision" text-rendering="geometricPrecision" project-id="305159d75d0a49fb94293498614d8aa3" export-id="e8da35231bd643b28344254d2a5059d4" cached="false">
<style><![CDATA[
#egTw8KVeD9P2_ts {animation: egTw8KVeD9P2_ts__ts 3000ms linear infinite normal forwards}@keyframes egTw8KVeD9P2_ts__ts { 0% {transform: translate(33.726601px,32.832001px) scale(0.5,0.5)} 33.333333% {transform: translate(33.726601px,32.832001px) scale(1,1)} 100% {transform: translate(33.726601px,32.832001px) scale(1,1)}} #egTw8KVeD9P2 {animation: egTw8KVeD9P2_c_o 3000ms linear infinite normal forwards}@keyframes egTw8KVeD9P2_c_o { 0% {opacity: 0} 33.333333% {opacity: 1} 100% {opacity: 1}} #egTw8KVeD9P3 {animation: egTw8KVeD9P3_c_o 3000ms linear infinite normal forwards}@keyframes egTw8KVeD9P3_c_o { 0% {opacity: 0} 16.666667% {opacity: 1} 100% {opacity: 1}} #egTw8KVeD9P4 {animation: egTw8KVeD9P4_s_do 3000ms linear infinite normal forwards}@keyframes egTw8KVeD9P4_s_do { 0% {stroke-dashoffset: 37.87} 16.666667% {stroke-dashoffset: 75.74} 100% {stroke-dashoffset: 75.74}}
]]></style>
<g id="egTw8KVeD9P2_ts" transform="translate(33.726601,32.832001) scale(0.5,0.5)"><path id="egTw8KVeD9P2" d="M33.7266,25.832l2.17,4.6l4.83.747-3.489,3.591.815,5.062-4.326-2.379-4.326,2.379.815-5.061-3.489-3.592l4.83-.747l2.17-4.6Z" transform="translate(-33.726601,-32.832001)" opacity="0" fill="none" stroke="#e11f27" stroke-width="2" stroke-linecap="square" stroke-miterlimit="10"/></g><path id="egTw8KVeD9P3" d="M20.2266,18.832c4.6944,0,8.5-3.8055,8.5-8.5c0-4.69439-3.8056-8.49997-8.5-8.49997-4.6945,0-8.5,3.80558-8.5,8.49997c0,4.6945,3.8055,8.5,8.5,8.5Z" opacity="0" fill="none" stroke="#e11f27" stroke-width="2" stroke-miterlimit="10"/><path id="egTw8KVeD9P4" d="M28.0656,24.6111c-2.4574-1.127-5.1315-1.7034-7.835-1.689-5.0298,0-9.8536,1.9981-13.41026,5.5548-3.55662,3.5566-5.55471,8.3804-5.55472,13.4102" fill="none" stroke="#e11f27" stroke-width="2" stroke-dashoffset="37.87" stroke-dasharray="37.87"/></svg>

<svg width="43" height="42" viewBox="0 0 43 42" fill="none" xmlns="http://www.w3.org/2000/svg">
<path d="M33.7266 25.832L35.8966 30.432L40.7266 31.179L37.2376 34.77L38.0526 39.832L33.7266 37.453L29.4006 39.832L30.2156 34.771L26.7266 31.179L31.5566 30.432L33.7266 25.832Z" stroke="#E11F27" stroke-width="2" stroke-miterlimit="10" stroke-linecap="square"/>
<path d="M20.2266 18.832C24.921 18.832 28.7266 15.0265 28.7266 10.332C28.7266 5.63761 24.921 1.83203 20.2266 1.83203C15.5321 1.83203 11.7266 5.63761 11.7266 10.332C11.7266 15.0265 15.5321 18.832 20.2266 18.832Z" stroke="#E11F27" stroke-width="2" stroke-miterlimit="10"/>
<path d="M28.0656 24.6111C25.6082 23.4841 22.9341 22.9077 20.2306 22.9221C15.2008 22.9221 10.377 24.9202 6.82034 28.4769C3.26372 32.0335 1.26563 36.8573 1.26562 41.8871" stroke="#E11F27" stroke-width="2"/>
</svg>
